public/icons/cook.svg

<svg width="24" height="24" viewBox="0 0 24 24" fill="none" xmlns="http://www.w3.org/2000/svg">
	<path d="M5 14.584H5.75C5.75 14.2859 5.57345 14.016 5.30028 13.8967L5 14.584ZM19 14.584L18.6997 13.8967C18.4265 14.016 18.25 14.2859 18.25 14.584H19ZM15.75 7C15.75 7.41421 16.0858 7.75 16.5 7.75C16.9142 7.75 17.25 7.41421 17.25 7H15.75ZM6.75 7C6.75 7.41421 7.08579 7.75 7.5 7.75C7.91421 7.75 8.25 7.41421 8.25 7H6.75ZM14 21.25C13.5858 21.25 13.25 21.5858 13.25 22C13.25 22.4142 13.5858 22.75 14 22.75V21.25ZM10 22.75C10.4142 22.75 10.75 22.4142 10.75 22C10.75 21.5858 10.4142 21.25 10 21.25V22.75ZM7 4.25C3.82436 4.25 1.25 6.82436 1.25 10H2.75C2.75 7.65279 4.65279 5.75 7 5.75V4.25ZM17 5.75C19.3472 5.75 21.25 7.65279 21.25 10H22.75C22.75 6.82436 20.1756 4.25 17 4.25V5.75ZM9 21.25C8.03599 21.25 7.38843 21.2484 6.90539 21.1835C6.44393 21.1214 6.24643 21.0142 6.11612 20.8839L5.05546 21.9445C5.51093 22.4 6.07773 22.5857 6.70552 22.6701C7.31174 22.7516 8.07839 22.75 9 22.75V21.25ZM4.25 18C4.25 18.9216 4.24841 19.6883 4.32991 20.2945C4.41432 20.9223 4.59999 21.4891 5.05546 21.9445L6.11612 20.8839C5.9858 20.7536 5.87858 20.5561 5.81654 20.0946C5.75159 19.6116 5.75 18.964 5.75 18H4.25ZM18.25 18C18.25 18.964 18.2484 19.6116 18.1835 20.0946C18.1214 20.5561 18.0142 20.7536 17.8839 20.8839L18.9445 21.9445C19.4 21.4891 19.5857 20.9223 19.6701 20.2945C19.7516 19.6883 19.75 18.9216 19.75 18H18.25ZM15 22.75C15.9216 22.75 16.6883 22.7516 17.2945 22.6701C17.9223 22.5857 18.4891 22.4 18.9445 21.9445L17.8839 20.8839C17.7536 21.0142 17.5561 21.1214 17.0946 21.1835C16.6116 21.2484 15.964 21.25 15 21.25V22.75ZM7 5.75C7.2137 5.75 7.42326 5.76571 7.6277 5.79593L7.84703 4.31205C7.57021 4.27114 7.28734 4.25 7 4.25V5.75ZM12 1.25C9.68949 1.25 7.72942 2.7421 7.02709 4.81312L8.44763 5.29486C8.94981 3.81402 10.3516 2.75 12 2.75V1.25ZM7.02709 4.81312C6.84722 5.34352 6.75 5.91118 6.75 6.5H8.25C8.25 6.07715 8.3197 5.67212 8.44763 5.29486L7.02709 4.81312ZM17 4.25C16.7127 4.25 16.4298 4.27114 16.153 4.31205L16.3723 5.79593C16.5767 5.76571 16.7863 5.75 17 5.75V4.25ZM12 2.75C13.6484 2.75 15.0502 3.81402 15.5524 5.29486L16.9729 4.81312C16.2706 2.7421 14.3105 1.25 12 1.25V2.75ZM15.5524 5.29486C15.6803 5.67212 15.75 6.07715 15.75 6.5H17.25C17.25 5.91118 17.1528 5.34352 16.9729 4.81312L15.5524 5.29486ZM5.75 18V14.584H4.25V18H5.75ZM5.30028 13.8967C3.79769 13.2402 2.75 11.7416 2.75 10H1.25C1.25 12.359 2.6705 14.3846 4.69972 15.2712L5.30028 13.8967ZM18.25 14.584V18H19.75V14.584H18.25ZM21.25 10C21.25 11.7416 20.2023 13.2402 18.6997 13.8967L19.3003 15.2712C21.3295 14.3846 22.75 12.359 22.75 10H21.25ZM15.75 6.5V7H17.25V6.5H15.75ZM6.75 6.5V7H8.25V6.5H6.75ZM15 21.25H14V22.75H15V21.25ZM10 21.25H9V22.75H10V21.25Z" fill="#262626"/>
	<path d="M5 18H13M19 18H17" stroke="#262626" stroke-width="1.5" stroke-linecap="round" stroke-linejoin="round"/>
</svg>

<svg xmlns="http://www.w3.org/2000/svg" width="24" height="24" fill="none"><path fill="#262626" d="M5 14.584h.75a.75.75 0 0 0-.45-.687l-.3.687Zm14 0-.3-.687a.75.75 0 0 0-.45.687H19ZM15.75 7a.75.75 0 0 0 1.5 0h-1.5Zm-9 0a.75.75 0 0 0 1.5 0h-1.5ZM14 21.25a.75.75 0 0 0 0 1.5v-1.5Zm-4 1.5a.75.75 0 0 0 0-1.5v1.5ZM7 4.25A5.75 5.75 0 0 0 1.25 10h1.5A4.25 4.25 0 0 1 7 5.75v-1.5Zm10 1.5A4.25 4.25 0 0 1 21.25 10h1.5A5.75 5.75 0 0 0 17 4.25v1.5Zm-8 15.5c-.964 0-1.612-.002-2.095-.067-.461-.062-.659-.169-.789-.3l-1.06 1.062c.455.455 1.022.64 1.65.725.606.082 1.372.08 2.294.08v-1.5ZM4.25 18c0 .922-.002 1.688.08 2.294.084.628.27 1.195.725 1.65l1.061-1.06c-.13-.13-.237-.328-.3-.79-.064-.482-.066-1.13-.066-2.094h-1.5Zm14 0c0 .964-.002 1.612-.067 2.095-.062.461-.169.659-.3.789l1.062 1.06c.455-.455.64-1.022.725-1.65.082-.606.08-1.372.08-2.294h-1.5ZM15 22.75c.922 0 1.688.002 2.294-.08.628-.084 1.195-.27 1.65-.726l-1.06-1.06c-.13.13-.328.237-.79.3-.482.064-1.13.066-2.094.066v1.5Zm-8-17c.214 0 .423.016.628.046l.219-1.484A5.792 5.792 0 0 0 7 4.25v1.5Zm5-4.5a5.252 5.252 0 0 0-4.973 3.563l1.42.482A3.752 3.752 0 0 1 12 2.75v-1.5ZM7.027 4.813A5.245 5.245 0 0 0 6.75 6.5h1.5c0-.423.07-.828.198-1.205l-1.42-.482ZM17 4.25c-.287 0-.57.021-.847.062l.22 1.484A4.29 4.29 0 0 1 17 5.75v-1.5Zm-5-1.5a3.752 3.752 0 0 1 3.552 2.545l1.42-.482A5.252 5.252 0 0 0 12 1.25v1.5Zm3.552 2.545c.128.377.198.782.198 1.205h1.5c0-.589-.097-1.156-.277-1.687l-1.42.482ZM5.75 18v-3.416h-1.5V18h1.5Zm-.45-4.103A4.251 4.251 0 0 1 2.75 10h-1.5a5.751 5.751 0 0 0 3.45 5.271l.6-1.374Zm12.95.687V18h1.5v-3.416h-1.5Zm3-4.584a4.251 4.251 0 0 1-2.55 3.897l.6 1.374A5.751 5.751 0 0 0 22.75 10h-1.5Zm-5.5-3.5V7h1.5v-.5h-1.5Zm-9 0V7h1.5v-.5h-1.5ZM15 21.25h-1v1.5h1v-1.5Zm-5 0H9v1.5h1v-1.5Z"/><path stroke="#262626" stroke-linecap="round" stroke-linejoin="round" stroke-width="1.5" d="M5 18h8m6 0h-2"/></svg>
